X:1
T:James Gibb editions
T:Jesu sole serenior - Giovanelli
T:#
%%score [ 1 2 3 ]
L:1/8
Q:1/4=46
M:4/4
K:F
V:1 treble nm="Alto" snm="A"
V:2 treble-8 nm="Tenor" snm="T"
V:3 bass nm="Bass" snm="B"
V:1
"^Jesu sole serenior""^Ruggiero Giovanelli\n (1560-1625)""^adagio molto"!p! !tenuto!D4 !tenuto!D4 | %1
w: Je- su|
w: Cu- ius|
 z!pp! GED E>E E2 | z D !>!A,>A, A,B, A,>A, |[M:4/4]"^," G,2!mf! D2 DD !>!_E2- | %4
w: so- le se- re- ni- or,|et bal- sa- mo su- a- vi-|or, O- mni dul- cio\-|
w: a- mor sic af- fi- cit,|Cu- ius gu- stus sic re- fi-|cit, Je- su in quem|
 E2 D2 !^!C>C"^," CC- | C !>!D2 G,- G,!f! (G>F_E/D/ | %6
w: * re dul- ci- or Prae\-|* cun- ctis * A\- * * *|
w: * mens de- fi- cit, So-|* lus a\- * man\- * * *|
"^rall."[Q:1/4=44] C3)[Q:1/4=43] B,[Q:1/4=41] A,3[Q:1/4=40] A, |[Q:1/4=40] !fermata!G,8 |] %8
w: * ma- bi- li-|or.|
w: * ti suf- fi-|cit.|
V:2
!p! !tenuto!=B4 !tenuto!B4 | z!pp! =B^cd c>c c2 | d!>!AAE ^F G2 F | %3
w: Je- su|so- le se- re- ni- or,|et bal- sa- mo su- a- vi-|
w: Cu- ius|a- mor sic af- fi- cit,|Cu- ius gu- stus sic re- fi-|
[M:4/4][K:treble-8]"^," G2!mf! B2 BB !>!B2- | B2 B2 !^!A>A"^," A2 | (A2 !>!=B2) c2 z!f! (!>!c- | %6
w: or, O- mni dul- cio\-|* re dul- ci- or|Prae- cun- ctis A\-|
w: cit, Je- su in quem|* mens de- fi- cit,|So\- * lus a\-|
 c/B/A/G/ A)G ^F3 F | !fermata!G8 |] %8
w: * * * * * ma- bi- li-|or.|
w: * * * * man- ti suf- fi-|cit.|
V:3
!p! !tenuto!G,4 !tenuto!G,4 | z!pp! G,A,_B, A,>A, A,A, | D,>D, D,^C, D,3 D, | %3
w: Je- su|so- le se- re- ni- or, et|bal- sa- mo su- a- vi-|
w: Cu- ius|a- mor sic af- fi- cit, Cu-|ius gu- stus sic re- fi-|
[M:4/4]"^," G,2!mf! G,2 G,G, !>!_E,2- | E,2 B,,2 !^!F,>F, F,2 | F,2 !>!G,2"^," C,2!f! (!>!C>B, | %6
w: or, O- mni dul- cio\-|* re dul- ci- or|Prae- cun- ctis A\- *|
w: cit, Je- su in quem|* mens de- fi- cit,|So\- * lus a\- *|
 A,/G,/^F,/=E,/ F,)G, D,3 D, | !fermata!G,8 |] %8
w: * * * * * ma- bi- li-|or.|
w: * * * * man- ti suf- fi-|cit.|

